assets/icon/follow.svg

<svg height="200" viewBox="0 0 1024 1024" width="200" xmlns="http://www.w3.org/2000/svg"><path d="m395.923761 421.098117a116.044775 114.338234 0 1 0 232.08955 0 116.044775 114.338234 0 1 0 -232.08955 0z" fill="#0b1d27"/><path d="m511.968536.009173a423.862074 423.862074 0 0 0 -426.635203 421.088944 421.728897 421.728897 0 0 0 306.537393 403.810219l-5.33294-77.220971a350.267501 350.267501 0 0 1 -228.889786-326.589248 354.320536 354.320536 0 0 1 708.641071 0 350.267501 350.267501 0 0 1 -228.889786 326.589248l-5.33294 77.220971a421.728897 421.728897 0 0 0 306.537393-403.810219 423.862074 423.862074 0 0 0 -426.635202-421.088944z" fill="#72cbfd"/><path d="m511.968536 147.83827a272.406577 272.406577 0 0 0 -125.217432 516.65523 183.239819 183.239819 0 0 1 24.744842-67.195044 202.651721 202.651721 0 1 1 304.830852-175.560386 201.371815 201.371815 0 0 1 -103.885672 175.560386 183.239819 183.239819 0 0 1 24.744842 67.834997 272.406577 272.406577 0 0 0 -125.217432-517.295183z" fill="#72cbfd"/><path d="m536.50006 1023.933658h-49.063048a44.156743 44.156743 0 0 1 -45.863285-36.263992l-30.717734-263.873873c-8.319386-78.714195 37.117263-152.522085 101.112543-152.522084s109.431929 73.80789 101.112543 152.522084l-30.717735 263.873873a44.156743 44.156743 0 0 1 -45.863284 36.263992z" fill="#0b1d27"/></svg>

<?xml version="1.0" standalone="no"?><!DOCTYPE svg PUBLIC "-//W3C//DTD SVG 1.1//EN" "http://www.w3.org/Graphics/SVG/1.1/DTD/svg11.dtd"><svg t="1624003419222" class="icon" viewBox="0 0 1024 1024" version="1.1" xmlns="http://www.w3.org/2000/svg" p-id="3386" xmlns:xlink="http://www.w3.org/1999/xlink" width="200" height="200"><defs><style type="text/css"></style></defs><path d="M395.923761 421.098117a116.044775 114.338234 0 1 0 232.08955 0 116.044775 114.338234 0 1 0-232.08955 0Z" fill="#0b1d27" p-id="3387"></path><path d="M511.968536 0.009173A423.862074 423.862074 0 0 0 85.333333 421.098117a421.728897 421.728897 0 0 0 306.537393 403.810219l-5.33294-77.220971A350.267501 350.267501 0 0 1 157.648 421.098117a354.320536 354.320536 0 0 1 708.641071 0 350.267501 350.267501 0 0 1-228.889786 326.589248l-5.33294 77.220971A421.728897 421.728897 0 0 0 938.603738 421.098117 423.862074 423.862074 0 0 0 511.968536 0.009173z" fill="#72cbfd" p-id="3388"></path><path d="M511.968536 147.83827a272.406577 272.406577 0 0 0-125.217432 516.65523A183.239819 183.239819 0 0 1 411.495946 597.298456a202.651721 202.651721 0 1 1 304.830852-175.560386A201.371815 201.371815 0 0 1 612.441126 597.298456a183.239819 183.239819 0 0 1 24.744842 67.834997A272.406577 272.406577 0 0 0 511.968536 147.83827z" fill="#72cbfd" p-id="3389"></path><path d="M536.50006 1023.933658h-49.063048a44.156743 44.156743 0 0 1-45.863285-36.263992l-30.717734-263.873873c-8.319386-78.714195 37.117263-152.522085 101.112543-152.522084s109.431929 73.80789 101.112543 152.522084L582.363344 987.669666a44.156743 44.156743 0 0 1-45.863284 36.263992z" fill="#0b1d27" p-id="3390"></path></svg>
